storage/app/icons/phosphoricons/thin/speaker-hifi-thin.svg

<svg xmlns="http://www.w3.org/2000/svg" fill="currentColor" viewBox="0 0 256 256"><path d="M192 28H64a12 12 0 0 0-12 12v176a12 12 0 0 0 12 12h128a12 12 0 0 0 12-12V40a12 12 0 0 0-12-12m4 188a4 4 0 0 1-4 4H64a4 4 0 0 1-4-4V40a4 4 0 0 1 4-4h128a4 4 0 0 1 4 4ZM120 76a8 8 0 1 1 8 8 8 8 0 0 1-8-8m8 40a36 36 0 1 0 36 36 36 36 0 0 0-36-36m0 64a28 28 0 1 1 28-28 28 28 0 0 1-28 28"/></svg>

<svg xmlns="http://www.w3.org/2000/svg" viewBox="0 0 256 256" fill="currentColor"><path d="M192,28H64A12,12,0,0,0,52,40V216a12,12,0,0,0,12,12H192a12,12,0,0,0,12-12V40A12,12,0,0,0,192,28Zm4,188a4,4,0,0,1-4,4H64a4,4,0,0,1-4-4V40a4,4,0,0,1,4-4H192a4,4,0,0,1,4,4ZM120,76a8,8,0,1,1,8,8A8,8,0,0,1,120,76Zm8,40a36,36,0,1,0,36,36A36,36,0,0,0,128,116Zm0,64a28,28,0,1,1,28-28A28,28,0,0,1,128,180Z"/></svg>
